src/assets/filled/VideoSlash.svg

<svg width="24" height="24" viewBox="0 0 24 24"  xmlns="http://www.w3.org/2000/svg">
<path opacity="0.4" d="M17.74 7.57007C17.75 7.64007 17.75 7.72007 17.74 7.79007C17.74 7.72007 17.73 7.65007 17.73 7.58007L17.74 7.57007Z" />
<path d="M17.2799 6.56L3.82988 20.01C2.42988 19.12 1.87988 17.53 1.87988 16V8C1.87988 4.58 3.20988 3.25 6.62988 3.25H12.6299C15.5199 3.25 16.9099 4.2 17.2799 6.56Z" />
<path d="M21.4 2.22988C21.1 1.92988 20.61 1.92988 20.31 2.22988L1.85 20.6899C1.55 20.9899 1.55 21.4799 1.85 21.7799C2 21.9199 2.2 21.9999 2.39 21.9999C2.59 21.9999 2.78 21.9199 2.93 21.7699L21.4 3.30988C21.7 3.00988 21.7 2.52988 21.4 2.22988Z" />
<path d="M22.3799 8.37998V15.62C22.3799 17.05 21.6799 17.62 21.2799 17.83C21.0899 17.93 20.7899 18.04 20.4199 18.04C19.9899 18.04 19.4599 17.9 18.8399 17.46L17.3599 16.42C17.2899 18.63 16.5899 19.89 14.9999 20.42C14.3599 20.65 13.5699 20.75 12.6199 20.75H6.61991C6.37991 20.75 6.14991 20.74 5.90991 20.71L14.9999 11.63L20.6499 5.97998C20.9099 5.99998 21.1199 6.07998 21.2799 6.16998C21.6799 6.37998 22.3799 6.94998 22.3799 8.37998Z" />
</svg>

<?xml version="1.0" encoding="UTF-8"?>
<svg width="24" height="24" viewBox="0 0 24 24" xmlns="http://www.w3.org/2000/svg">
 <path d="m17.74 7.5701c0.01 0.07 0.01 0.15 0 0.22 0-0.07-0.01-0.14-0.01-0.21l0.01-0.01z" opacity=".4"/>
 <path d="m17.28 6.56-13.45 13.45c-1.4-0.89-1.95-2.48-1.95-4.01v-8c0-3.42 1.33-4.75 4.75-4.75h6c2.89 0 4.28 0.95 4.65 3.31z"/>
 <path d="m21.4 2.2299c-0.3-0.3-0.79-0.3-1.09 0l-18.46 18.46c-0.3 0.3-0.3 0.79 0 1.09 0.15 0.14 0.35 0.22 0.54 0.22 0.2 0 0.39-0.08 0.54-0.23l18.47-18.46c0.3-0.3 0.3-0.78 0-1.08z"/>
 <path d="m22.38 8.38v7.24c0 1.43-0.7 2-1.1 2.21-0.19 0.1-0.49 0.21-0.86 0.21-0.43 0-0.96-0.14-1.58-0.58l-1.48-1.04c-0.07 2.21-0.77 3.47-2.36 4-0.64 0.23-1.43 0.33-2.38 0.33h-6c-0.24 0-0.47-0.01-0.71-0.04l9.09-9.08 5.65-5.65c0.26 0.02 0.47 0.1 0.63 0.19 0.4 0.21 1.1 0.78 1.1 2.21z"/>
</svg>
